public/assets/icons/home/plane.svg

<svg xmlns="http://www.w3.org/2000/svg"
     viewBox="280 230 320 120" version="1.0">
    <defs>
        <clipPath id="7b5f988591">
            <path d="M 291.460938 234.253906 L 561 234.253906 L 561 300 L 291.460938 300 Z M 291.460938 234.253906 "
                  clip-rule="nonzero"/>
        </clipPath>
        <clipPath id="e94d882e64">
            <path d="M 537.152344 301 L 590.152344 301 L 590.152344 347.855469 L 537.152344 347.855469 Z M 537.152344 301 "
                  clip-rule="nonzero"/>
        </clipPath>
    </defs>
    <g clip-path="url(#7b5f988591)">
        <path fill="#225378"
              d="M 505.921875 237.75 C 502.675781 237.179688 499.351562 236.855469 496.054688 236.785156 L 496.109375 234.253906 C 499.535156 234.328125 502.984375 234.667969 506.359375 235.257812 Z M 476.472656 239.410156 L 475.738281 236.992188 C 475.953125 236.929688 476.164062 236.863281 476.378906 236.804688 C 479.433594 235.917969 482.609375 235.25 485.820312 234.820312 L 486.152344 237.328125 C 483.070312 237.738281 480.015625 238.378906 477.078125 239.234375 C 476.875 239.292969 476.671875 239.351562 476.472656 239.410156 Z M 524.632812 244.121094 C 521.734375 242.589844 518.675781 241.273438 515.53125 240.207031 L 516.34375 237.8125 C 519.613281 238.921875 522.800781 240.292969 525.8125 241.882812 Z M 458.382812 247.632812 L 457.082031 245.464844 C 460.1875 243.597656 463.148438 242.023438 466.128906 240.648438 L 467.191406 242.949219 C 464.289062 244.28125 461.410156 245.816406 458.382812 247.632812 Z M 539.332031 257.035156 C 537.117188 254.238281 534.859375 251.789062 532.617188 249.746094 L 534.320312 247.878906 C 536.664062 250.011719 539.015625 252.558594 541.316406 255.460938 Z M 441.945312 259.160156 L 440.394531 257.164062 C 443.464844 254.777344 446.058594 252.84375 448.550781 251.078125 L 450.011719 253.140625 C 447.550781 254.886719 444.988281 256.800781 441.945312 259.160156 Z M 426.0625 271.714844 L 424.515625 269.710938 C 427.21875 267.621094 429.875 265.503906 432.445312 263.457031 L 434.023438 265.433594 C 431.445312 267.488281 428.78125 269.609375 426.0625 271.714844 Z M 550.027344 273.898438 C 548.476562 270.875 546.808594 267.945312 545.078125 265.195312 L 547.21875 263.847656 C 548.988281 266.664062 550.691406 269.65625 552.273438 272.746094 Z M 409.320312 283.335938 L 408.035156 281.160156 C 408.71875 280.75 409.398438 280.335938 410.078125 279.917969 C 412.132812 278.636719 414.214844 277.257812 416.429688 275.699219 L 417.886719 277.769531 C 415.625 279.355469 413.507812 280.761719 411.414062 282.0625 C 410.722656 282.496094 410.023438 282.917969 409.320312 283.335938 Z M 301 290.285156 C 297.859375 288.949219 294.757812 287.457031 291.777344 285.855469 L 292.976562 283.628906 C 295.890625 285.195312 298.921875 286.648438 301.992188 287.953125 Z M 390.871094 292.125 L 389.992188 289.75 C 393.117188 288.589844 396.21875 287.277344 399.203125 285.855469 L 400.289062 288.144531 C 397.238281 289.59375 394.070312 290.933594 390.871094 292.125 Z M 557.609375 292.398438 C 556.714844 289.410156 555.578125 286.246094 554.234375 282.992188 L 556.574219 282.027344 C 557.953125 285.359375 559.113281 288.601562 560.035156 291.675781 Z M 320.4375 296.59375 C 317.117188 295.828125 313.800781 294.90625 310.582031 293.863281 L 311.363281 291.460938 C 314.515625 292.480469 317.757812 293.378906 321.003906 294.128906 Z M 371.1875 297.582031 L 370.71875 295.097656 C 373.996094 294.480469 377.273438 293.71875 380.46875 292.832031 L 381.140625 295.269531 C 377.882812 296.175781 374.53125 296.953125 371.1875 297.582031 Z M 340.652344 299.511719 C 337.257812 299.304688 333.839844 298.957031 330.484375 298.472656 L 330.84375 295.96875 C 334.128906 296.441406 337.480469 296.785156 340.804688 296.984375 Z M 350.871094 299.703125 L 350.816406 297.175781 C 354.148438 297.101562 357.511719 296.890625 360.8125 296.546875 L 361.070312 299.0625 C 357.703125 299.414062 354.273438 299.628906 350.871094 299.703125 "
              fill-opacity="1" fill-rule="nonzero"/>
    </g>
    <g clip-path="url(#e94d882e64)">
        <path fill="#225378"
              d="M 542.71875 325.066406 L 565.324219 333.289062 L 567.472656 342.183594 C 567.902344 343.957031 570.457031 348.253906 572.230469 347.824219 C 574 347.398438 574.316406 342.410156 573.890625 340.636719 L 571.742188 331.738281 L 588.109375 314.109375 C 589.847656 312.234375 590.535156 309.609375 589.9375 307.121094 L 589.710938 306.1875 L 584.820312 310.097656 L 584.5 308.78125 C 584.457031 308.601562 584.277344 308.492188 584.101562 308.535156 L 582.261719 308.980469 C 582.085938 309.023438 581.976562 309.199219 582.019531 309.375 L 582.617188 311.855469 L 576.890625 316.4375 L 576.550781 315.035156 C 576.511719 314.859375 576.332031 314.753906 576.15625 314.796875 L 574.3125 315.238281 C 574.136719 315.28125 574.03125 315.460938 574.074219 315.636719 L 574.6875 318.199219 L 569.476562 322.367188 L 567.078125 312.433594 C 566.5625 310.300781 565.785156 308.246094 564.765625 306.3125 L 567.402344 305.046875 C 568.761719 304.398438 569.503906 303.101562 569.210938 301.894531 L 562.980469 303.398438 C 562.933594 303.332031 562.886719 303.265625 562.839844 303.195312 L 561.789062 301.738281 C 561.414062 301.214844 560.589844 301.414062 560.492188 302.054688 L 560.226562 303.832031 C 560.210938 303.910156 560.199219 303.992188 560.1875 304.074219 L 553.957031 305.578125 C 554.25 306.785156 555.503906 307.597656 557.003906 307.558594 L 559.929688 307.480469 C 559.90625 309.664062 560.152344 311.847656 560.664062 313.980469 L 563.0625 323.914062 L 556.523438 322.582031 L 555.90625 320.019531 C 555.859375 319.84375 555.683594 319.738281 555.507812 319.777344 L 553.664062 320.222656 C 553.488281 320.265625 553.378906 320.441406 553.425781 320.621094 L 553.761719 322.023438 L 546.574219 320.558594 L 545.976562 318.082031 C 545.933594 317.902344 545.757812 317.792969 545.582031 317.835938 L 543.738281 318.28125 C 543.5625 318.324219 543.453125 318.5 543.496094 318.675781 L 543.816406 319.996094 L 537.675781 318.746094 L 537.902344 319.683594 C 538.503906 322.171875 540.3125 324.191406 542.71875 325.066406 "
              fill-opacity="1" fill-rule="nonzero"/>
    </g>
</svg>

<svg xmlns="http://www.w3.org/2000/svg" version="1.0" viewBox="280 230 320 120">
    <defs>
        <clipPath id="a">
            <path d="M291.46 234.25H561V300H291.46Zm0 0"/>
        </clipPath>
        <clipPath id="b">
            <path d="M537.15 301h53v46.86h-53Zm0 0"/>
        </clipPath>
    </defs>
    <g clip-path="url(#a)">
        <path fill="#225378" d="M505.92 237.75c-3.24-.57-6.57-.9-9.87-.96l.06-2.54c3.43.08 6.87.42 10.25 1Zm-29.45 1.66-.73-2.42.64-.19a64.8 64.8 0 0 1 9.44-1.98l.33 2.5a61.65 61.65 0 0 0-9.07 1.91l-.6.18Zm48.16 4.71a62.5 62.5 0 0 0-9.1-3.91l.81-2.4a65.28 65.28 0 0 1 9.47 4.07Zm-66.25 3.51-1.3-2.17a93.2 93.2 0 0 1 9.05-4.81l1.06 2.3a89.92 89.92 0 0 0-8.8 4.68Zm80.95 9.4a61.67 61.67 0 0 0-6.71-7.28l1.7-1.87a64.11 64.11 0 0 1 7 7.58Zm-97.38 2.13-1.56-2a226.2 226.2 0 0 1 8.16-6.08l1.46 2.06a234.58 234.58 0 0 0-8.06 6.02Zm-15.89 12.55-1.54-2c2.7-2.09 5.36-4.2 7.93-6.25l1.57 1.97a725.55 725.55 0 0 1-7.96 6.28Zm123.97 2.19a114.72 114.72 0 0 0-4.95-8.7l2.14-1.35c1.77 2.81 3.47 5.8 5.05 8.9Zm-140.71 9.44-1.28-2.18 2.04-1.24a136 136 0 0 0 6.35-4.22l1.46 2.07a138.78 138.78 0 0 1-8.57 5.57ZM301 290.29a113.06 113.06 0 0 1-9.22-4.43l1.2-2.23c2.91 1.57 5.94 3.02 9.01 4.32Zm89.87 1.83-.88-2.37c3.13-1.16 6.23-2.47 9.21-3.9l1.09 2.3a118.08 118.08 0 0 1-9.42 3.98Zm166.74.28a99.9 99.9 0 0 0-3.38-9.4l2.34-.97c1.38 3.33 2.54 6.57 3.47 9.65Zm-237.17 4.2c-3.32-.77-6.64-1.7-9.86-2.74l.78-2.4c3.16 1.02 6.4 1.92 9.64 2.67Zm50.75.98-.47-2.48c3.28-.62 6.55-1.38 9.75-2.27l.67 2.44c-3.26.9-6.6 1.68-9.95 2.31Zm-30.54 1.93c-3.4-.2-6.81-.55-10.17-1.04l.36-2.5c3.29.47 6.64.82 9.96 1.01Zm10.22.2-.05-2.53c3.33-.08 6.7-.29 10-.63l.25 2.51c-3.37.35-6.8.57-10.2.64"/>
    </g>
    <g clip-path="url(#b)">
        <path fill="#225378" d="m542.72 325.07 22.6 8.22 2.15 8.9c.43 1.77 2.99 6.06 4.76 5.63 1.77-.42 2.09-5.41 1.66-7.18l-2.15-8.9 16.37-17.63a7.65 7.65 0 0 0 1.83-6.99l-.23-.93-4.89 3.9-.32-1.3a.33.33 0 0 0-.4-.25l-1.84.44a.33.33 0 0 0-.24.4l.6 2.48-5.73 4.58-.34-1.4a.32.32 0 0 0-.4-.24l-1.84.44a.33.33 0 0 0-.24.4l.62 2.56-5.21 4.17-2.4-9.94a26.44 26.44 0 0 0-2.31-6.12l2.63-1.26c1.36-.65 2.1-1.95 1.81-3.16l-6.23 1.5c-.05-.06-.1-.12-.14-.2l-1.05-1.45a.72.72 0 0 0-1.3.31l-.26 1.78-.04.24-6.23 1.5c.29 1.22 1.54 2.03 3.04 1.99l2.93-.08c-.02 2.18.22 4.37.73 6.5l2.4 9.93-6.54-1.33-.61-2.56a.34.34 0 0 0-.4-.24l-1.85.44a.32.32 0 0 0-.23.4l.33 1.4-7.19-1.46-.6-2.48a.33.33 0 0 0-.39-.24l-1.84.44a.33.33 0 0 0-.24.4l.32 1.32-6.14-1.25.22.93a7.64 7.64 0 0 0 4.82 5.39"/>
    </g>
</svg>
